app/src/main/res/raw/cinelog_to_rec709.cube
TITLE "Simple CineLog To Rec709"
LUT_3D_SIZE 2
DOMAIN_MIN 0.0 0.0 0.0
DOMAIN_MAX 1.0 1.0 1.0

0.00 0.00 0.00
0.10 0.00 0.00
0.00 0.10 0.00
0.12 0.12 0.00
0.00 0.00 0.10
0.12 0.00 0.12
0.00 0.12 0.12
1.00 1.00 1.00
